X:18
T:Behind the Ditch in Pairc Anna
R:march
H:with some variations. Also played as a hornpipe
Z:id:hn-march-18
M:C|
L:1/8
K:Amix
EAAB c2d2 | eged Bcd2 | eAA=c BAGB | AGEF GED2 |
EAAB c2d2 | eged Bcdf | e2A=c BAGB | A2AG A4 :|
|: eaag egdg | eaag egd2 | eAA=c BAGB | AGEF GED2 |
[1 eaag egdg | eaag egd2 | eAA=c BAGB | A2AG A4 :|
[2 EAAB c2d2 | efed B2d2 | e2A2 BAdB | A2AB A4 ||
<end>
<start>
